docs/img/icon1/comma_services2.svg

<svg width="388" height="506" viewBox="0 0 388 506" fill="none" xmlns="http://www.w3.org/2000/svg">
<path d="M178.423 506H50.9781C33.0414 506 20.2968 501.952 12.7445 493.856C4.24817 486.66 -3.05176e-05 474.516 -3.05176e-05 457.424V403.451C-3.05176e-05 386.359 4.24817 373.765 12.7445 365.669C20.2968 358.473 33.0414 354.875 50.9781 354.875H167.095C179.367 354.875 188.808 351.276 195.416 344.08C202.024 337.783 205.328 328.788 205.328 317.093V296.853H50.9781C33.0413 296.853 20.2968 292.805 12.7445 284.709C4.24817 277.513 0 265.369 0 248.277V48.576C0 31.4844 4.24817 18.8907 12.7445 10.7947C20.2968 3.59824 33.0413 0 50.9781 0H337.022C354.959 0 368.175 3.59824 376.672 10.7947C384.224 18.8907 388 31.4844 388 48.576V302.251C388 370.617 369.119 421.442 331.358 454.725C292.652 488.908 241.674 506 178.423 506Z" fill="#0A7272"/>
</svg>

<svg width="388" height="506" fill="none" xmlns="http://www.w3.org/2000/svg"><path d="M178.423 506H50.978c-17.937 0-30.681-4.048-38.233-12.144C4.248 486.66 0 474.516 0 457.424v-53.973c0-17.092 4.248-29.686 12.745-37.782 7.552-7.196 20.296-10.794 38.233-10.794h116.117c12.272 0 21.713-3.599 28.321-10.795 6.608-6.297 9.912-15.292 9.912-26.987v-20.24H50.978c-17.937 0-30.681-4.048-38.233-12.144C4.248 277.513 0 265.369 0 248.277V48.576c0-17.092 4.248-29.685 12.745-37.781C20.297 3.598 33.04 0 50.977 0h286.044c17.937 0 31.153 3.598 39.65 10.795C384.224 18.89 388 31.485 388 48.576v253.675c0 68.366-18.881 119.191-56.642 152.474C292.652 488.908 241.674 506 178.423 506z" fill="#0A7272"/></svg>
